packages/ui-icons/src/Basic/24/Health_24.svg

<svg xmlns="http://www.w3.org/2000/svg" viewBox="0 0 32 32"><path d="M21 4H11v7H4v10h7v7h10v-7h7V11h-7Zm5 9v6h-7v7h-6v-7H6v-6h7V6h6v7Z"/></svg>

<svg id="Ready" xmlns="http://www.w3.org/2000/svg" viewBox="0 0 32 32"><title>Megaicons_work_24_1.8_cp</title><path d="M21,4H11v7H4V21h7v7H21V21h7V11H21Zm5,9v6H19v7H13V19H6V13h7V6h6v7Z"/></svg>
